X: 3
T: Stan Chapman's
R: jig
M: 6/8
L: 1/8
K: Amaj
~E3 EFA|~B3 Bce|fea fec|ecA BAF|~E3 EFA|~B3 Bce|fea fec|ecA A3:|e3 ecA|~f3 fga|fec BAB|cAF F af|e3 ecA|~f3 fga|fec BAB|1cAA A af:|2cAA A3:|


Tune 324	Setting 28944

